X:1
T:Why thus enraged, ye tribes profane?
T:Why thus enraged, ye tribes profane? (Robert Cooke)
C:Robert Cooke
Z:p6, Improved Psalmody,
Z:ed. W. D. Tattersall,
Z:London: (1794)
%%score [ 1 2 3 ]
L:1/8
M:4/4
K:A
V:1 treble nm="Soprano" snm="S."
V:2 treble nm="Alto" snm="A."
V:3 bass nm="Bass" snm="B."
V:1
 A4 B3 c | d6 c2 | (B2 A2) (G2 A2) | G4 e4 | (B2 A2) (B2 c2) | d4 d4 | (A2 G2) (A2 B2) | c8 | %8
w: In fac- tious|coun- sels|thus _ they _|join And|vaunt- * ing _|brave the|pow’r _ di- *|vine:|
w: Why thus en-|raged, ye|tribes _ pro- *|fane? Why|strive _ the _|Gen- tiles|thus _ in _|vain?|
w: Earth’s scep- ter’d|lords re-|bel- * lious _|rise A-|gainst _ the _|ru- ler|of _ the _|skies,|
 c4 ^d3 d | e4 (A2 G2) | F4 B4 | (G2 A2) B4 | e4 d4 | (c2 d2) (e2 f2) | c4 B4 | A8 | f4 e2 d2 | %17
w: “Quick let us|each re- *|nounce their|sway, _ And|cast their|ha- * ted _|bands a-|way,|and cast their|
w: Why, rous’d by|dis- cord’s _|fierce a-|larms, _ Do|head- long|na- * tions _|rush to|arms,|do head- long|
w: And him, on|whose dis- *|tin- guish’d|head _ His|hand the|sac- * red _|oil has|shed,|his hand the|
 (c2 de) f4 | e4 d4 | c8 |] %20
w: ha- * * ted|bands a-|way.”|
w: na- * * tions|rush to|arms?|
w: sac- * * red|oil has|shed.|
V:2
 c4 e3 e | A4 G4 | (F2 A2) (d2 c2) | B4 G4 | (G2 F2) (G2 A2) | B4 F4 | (F2 E2) (F2 G2) | A8 | %8
w: In fac- tious|coun- sels|thus _ they _|join And|vaunt- * ing _|brave the|pow’r _ di- *|vine:|
w: Why thus en-|raged, ye|tribes _ pro- *|fane? Why|strive _ the _|Gen- tiles|thus _ in _|vain?|
w: Earth’s scep- ter’d|lords re-|bel- * lious _|rise A-|gainst _ the _|ru- ler|of _ the _|skies,|
 A4 B3 A | (G2 F2) E4 | E4 ^D4 | E4 (F2 G2) | (A2 E2) (F2 G2) | A4 A4 | A4 G4 | A8 | A4 G2 (AB) | %17
w: “Quick let us|each _ re-|nounce their|sway, And _|cast _ their _|ha- ted|bands a-|way,|and cast their _|
w: Why, rous’d by|dis- * cord’s|fierce a-|larms, Do _|head- * long _|na- tions|rush to|arms,|do head- long _|
w: And him, on|whose _ dis-|tin- guish’d|head His _|hand _ the _|sac- red|oil has|shed,|his hand the _|
 c4 d4 | c4 B4 | A8 |] %20
w: ha- ted|bands a-|way.”|
w: na- tions|rush to|arms?|
w: sac- red|oil has|shed.|
V:3
 A,4 G,3 A, | F,4 E,4 | (D,2 C,2) (B,,2 A,,2) | E,4 E,4 | E,4 E,4 | (B,,2 A,,2) (B,,2 C,2) | %6
w: In fac- tious|coun- sels|thus _ they _|join And|vaunt- ing|brave _ the _|
w: Why thus en-|raged, ye|tribes _ pro- *|fane? Why|strive the|Gen- * tiles _|
w: Earth’s scep- ter’d|lords re-|bel- * lious _|rise A-|gainst the|ru- * ler _|
 D,4 (C,2 B,,2) | A,,8 | A,4 G,3 F, | (E,2 ^D,2) (C,2 B,,2) | A,,4 B,,4 | E,4 D,4 | C,4 B,,4 | %13
w: pow’r di- *|vine:|“Quick let us|each _ re- *|nounce their|sway, And|cast their|
w: thus in _|vain?|Why, rous’d by|dis- * cord’s _|fierce a-|larms, Do|head- long|
w: of the _|skies,|And him, on|whose _ dis- *|tin- guish’d|head His|hand the|
"^Notes:This setting is attributed 'Rt. Cooke' in the source.Only the first verse of the five given here is underlaid in the source: the other four are printed afterthe music and have been underlaid editorially." (A,,2 B,,2) (C,2 D,2) | %14
w: ha- * ted _|
w: na- * tions _|
w: sac- * red _|
 E,4 E,4 | F,8 | D,4 E,2 (F,G,) | A,4 D,4 | E,4 E,4 | A,8 |] %20
w: bands a-|way,|and cast their _|ha- ted|bands a-|way.”|
w: rush to|arms,|do head- long _|na- tions|rush to|arms?|
w: oil has|shed,|his hand the _|sac- red|oil has|shed.|

